COLOR/action 16/16/mail-reply-all.svg

<svg height="16" width="16" xmlns="http://www.w3.org/2000/svg"><g fill="#1a7fd4" stroke="none" transform="matrix(.95151402 0 0 .95151402 2.329347 -7.43739)"><path d="m8.4310006 12.204119v.494688 4.452198c0 .566422-.087201.912934-.2093695 1.137168-.1221684.224235-.279063.357778-.5357418.492636-.329251.172191-.9015505.253729-1.5312767.299686h-2.5863388v-2.264072l-.7492171.351003c-.7569253.355087-1.5261318.74508-2.30923116 1.172063h-.002053v.0021c-.77384149.426951-1.52185734.863795-2.24149364 1.30959l-.7143221.44132.7102168.44953c.7209732.455726 1.47040907.896252 2.24559894 1.32396v.0021h.002053c.78375096.42734 1.55474846.814984 2.31333636 1.1618l.7430592.340739v-2.255862h5.730998c1.0477809 0 2.2174229-.02985 3.2596089-.576794.403041-.21153.758054-.51201 1.044798-.89085.000905-.0012.0012-.0029.0021-.0041.04385-.05791.08055-.123194.121106-.184738.04749-.07225.09888-.140487.141633-.217581.07909-.142421.149732-.29308.211422-.451583.000232-.000594-.00023-.0015 0-.0021.12348-.317726.21219-.667175.256582-1.044798.000077-.000657-.000077-.0014 0-.0021.02208-.18855.03276-.384746.03284-.587058v-4.944833-.0041h-1.978753v.0041h-.05337v.525478 4.419355c0 .55851-.08987.896985-.207317 1.112537-.11745.21554-.265994.340256-.517268.472109-.184087.0966-.452224.167163-.755376.221686-.280724.03058-.588532.04904-.8887968.06979.2605268-.538825.4433728-1.145687.4433728-1.878174v-4.946886z" fill="#1a7fd4"/><g transform="matrix(1.0509567 0 0 1.0509567 -2.448043 7.816375)"><path d="m12.234375 8.3828125c0 .6969716-.17398 1.2744098-.421875 1.7871095.064023-.004424.12508-.011265.189453-.015625.132145-.3842367.232422-.7919108.232422-1.2714845zm3.765625.0019531c-.000076.1925027-.010241.3791858-.03125.5585938v.0019531c-.04224.3593136-.126648.6918199-.244141.9941406v.0019531c-.058699.1508178-.125916.2941718-.201171.4296878-.040681.073356-.089579.138284-.134766.207031-.03859.05856-.073511.120679-.115234.175781-.000857.001142-.001093.002765-.001954.003906-.272841.360472-.610641.646383-.99414.847657-.991655.520425-2.104585.548828-3.101563.548828h-5.4531248v.5h5.4531248c.996978 0 2.109908-.028403 3.101563-.548828.383499-.201274.721299-.487185.99414-.847657.000861-.001141.001097-.002764.001954-.003906.041723-.055102.076644-.117221.115234-.175781.045187-.068747.094085-.133675.134766-.207031.075255-.135516.142472-.27887.201171-.429688v-.001953c.117493-.302321.201901-.6348269.244141-.9941405v-.0019531c.021009-.179408.031174-.3660911.03125-.5585938zm-15.59960938 3.0507814-.40039062.246094.67578125.427734c.68601615.43363 1.39911475.852795 2.13671875 1.259766v.001953h.0019531c.7457501.40662 1.4793649.775468 2.2011719 1.105468l.7070312.324219v-.5l-.7070312-.324219c-.721807-.33-1.4554218-.698848-2.2011719-1.105468h-.0019531v-.001953c-.737604-.406971-1.4507026-.826136-2.13671875-1.259766z" fill="#050505" opacity=".2"/><path d="m10.351562 4.1757812v.4707032.0292968h1.882813v-.5zm3.765626 0v.0039063h-.050782v.5h.050782v-.0039063h1.882812v-.4960937-.0039063zm-8.3925786 4.3886719-.7128906.3339844c-.7202251.3378703-1.4521357.7089541-2.1972657 1.1152345h-.0019531v.001953c-.736321.40625-1.4480685.821914-2.1328125 1.246094l-.6796875.419922.40039062.253906.27929688-.173828c.684744-.42418 1.3964915-.839844 2.1328125-1.246094v-.001953h.0019531c.74513-.40628 1.4770406-.7773642 2.1972657-1.1152345l.7128906-.3339844zm4.6269526.3183594c0 .5389585-.082973.8686695-.199218 1.0820313-.116245.2133622-.2655324.3404302-.5097659.4687502-.3132869.163842-.8578379.241427-1.4570312.285156h-2.4609375v.5h2.4609375c.5991933-.043729 1.1437443-.121314 1.4570312-.285156.2442335-.12832.3935209-.255388.5097659-.46875s.199218-.543073.199218-1.0820315zm3.714844.0019531c0 .5314301-.085513.853493-.197265 1.0585938-.111756.2050896-.253097.3237586-.492188.4492186-.175161.091916-.430296.159058-.71875.210938-.207256.022577-.433355.035685-.65625.050781-.059903.17418-.11213.355705-.189453.515625.285706-.019744.57859-.037309.845703-.066406.288454-.05188.543589-.119022.71875-.210938.239091-.12546.380432-.244129.492188-.449219.111752-.2051.197265-.5271633.197265-1.0585934z" fill="#fdfdfd" opacity=".3"/></g></g></svg>

<?xml version="1.0" encoding="UTF-8" standalone="no"?>
<svg
   xmlns:dc="http://purl.org/dc/elements/1.1/"
   xmlns:cc="http://creativecommons.org/ns#"
   xmlns:rdf="http://www.w3.org/1999/02/22-rdf-syntax-ns#"
   xmlns:svg="http://www.w3.org/2000/svg"
   xmlns="http://www.w3.org/2000/svg"
   xmlns:sodipodi="http://sodipodi.sourceforge.net/DTD/sodipodi-0.dtd"
   xmlns:inkscape="http://www.inkscape.org/namespaces/inkscape"
   height="16"
   width="16"
   version="1.1"
   id="svg8"
   sodipodi:docname="mail-reply-all.svg"
   inkscape:version="0.92.4 (5da689c313, 2019-01-14)">
  <metadata
     id="metadata14">
    <rdf:RDF>
      <cc:Work
         rdf:about="">
        <dc:format>image/svg+xml</dc:format>
        <dc:type
           rdf:resource="http://purl.org/dc/dcmitype/StillImage" />
        <dc:title></dc:title>
      </cc:Work>
    </rdf:RDF>
  </metadata>
  <defs
     id="defs12" />
  <sodipodi:namedview
     pagecolor="#ffffff"
     bordercolor="#666666"
     borderopacity="1"
     objecttolerance="10"
     gridtolerance="10"
     guidetolerance="10"
     inkscape:pageopacity="0"
     inkscape:pageshadow="2"
     inkscape:window-width="1920"
     inkscape:window-height="1016"
     id="namedview10"
     showgrid="false"
     inkscape:zoom="78.964706"
     inkscape:cx="8.0000002"
     inkscape:cy="6.5410155"
     inkscape:window-x="0"
     inkscape:window-y="27"
     inkscape:window-maximized="1"
     inkscape:current-layer="g921" />
  <g
     fill="#fb7c38"
     transform="translate(-52.000046 -480)"
     id="g6">
    <g
       id="g921"
       transform="matrix(0.95151402,0,0,0.95151402,54.329393,472.56261)"
       style="fill:#1a7fd4;stroke:#1a7fd4;stroke-opacity:1">
      <path
         style="color:#000000;font-style:normal;font-variant:normal;font-weight:normal;font-stretch:normal;font-size:medium;line-height:normal;font-family:sans-serif;font-variant-ligatures:normal;font-variant-position:normal;font-variant-caps:normal;font-variant-numeric:normal;font-variant-alternates:normal;font-feature-settings:normal;text-indent:0;text-align:start;text-decoration:none;text-decoration-line:none;text-decoration-style:solid;text-decoration-color:#000000;letter-spacing:normal;word-spacing:normal;text-transform:none;writing-mode:lr-tb;direction:ltr;text-orientation:mixed;dominant-baseline:auto;baseline-shift:baseline;text-anchor:start;white-space:normal;shape-padding:0;clip-rule:nonzero;display:inline;overflow:visible;visibility:visible;opacity:1;isolation:auto;mix-blend-mode:normal;color-interpolation:sRGB;color-interpolation-filters:linearRGB;solid-color:#000000;solid-opacity:1;vector-effect:none;fill:#1a7fd4;fill-opacity:1;fill-rule:nonzero;stroke:none;stroke-width:0.9892118;stroke-linecap:butt;stroke-linejoin:miter;stroke-miterlimit:4;stroke-dasharray:none;stroke-dashoffset:0;stroke-opacity:1;color-rendering:auto;image-rendering:auto;shape-rendering:auto;text-rendering:auto;enable-background:accumulate"
         d="m 8.4310006,12.204119 v 0.494688 4.452198 c 0,0.566422 -0.087201,0.912934 -0.2093695,1.137168 -0.1221684,0.224235 -0.279063,0.357778 -0.5357418,0.492636 C 7.3566383,18.953 6.7843388,19.034538 6.1546126,19.080495 H 3.5682738 v -2.264072 l -0.7492171,0.351003 c -0.7569253,0.355087 -1.5261318,0.74508 -2.30923116,1.172063 h -0.002053 v 0.0021 c -0.77384149,0.426951 -1.52185734,0.863795 -2.24149364,1.30959 l -0.7143221,0.44132 0.7102168,0.44953 c 0.7209732,0.455726 1.47040907,0.896252 2.24559894,1.32396 v 0.0021 h 0.002053 c 0.78375096,0.42734 1.55474846,0.814984 2.31333636,1.1618 l 0.7430592,0.340739 v -2.255862 h 5.730998 c 1.0477809,0 2.2174229,-0.02985 3.2596089,-0.576794 0.403041,-0.21153 0.758054,-0.51201 1.044798,-0.89085 9.05e-4,-0.0012 0.0012,-0.0029 0.0021,-0.0041 0.04385,-0.05791 0.08055,-0.123194 0.121106,-0.184738 0.04749,-0.07225 0.09888,-0.140487 0.141633,-0.217581 0.07909,-0.142421 0.149732,-0.29308 0.211422,-0.451583 2.32e-4,-5.94e-4 -2.3e-4,-0.0015 0,-0.0021 0.12348,-0.317726 0.21219,-0.667175 0.256582,-1.044798 7.7e-5,-6.57e-4 -7.7e-5,-0.0014 0,-0.0021 0.02208,-0.18855 0.03276,-0.384746 0.03284,-0.587058 v -4.944833 -0.0041 h -1.978753 v 0.0041 h -0.05337 v 0.525478 4.419355 c 0,0.55851 -0.08987,0.896985 -0.207317,1.112537 -0.11745,0.21554 -0.265994,0.340256 -0.517268,0.472109 -0.184087,0.0966 -0.452224,0.167163 -0.755376,0.221686 -0.280724,0.03058 -0.588532,0.04904 -0.8887968,0.06979 0.2605268,-0.538825 0.4433728,-1.145687 0.4433728,-1.878174 v -4.946886 z"
         id="path940"
         inkscape:connector-curvature="0" />
      <path
         style="color:#000000;font-style:normal;font-variant:normal;font-weight:normal;font-stretch:normal;font-size:medium;line-height:normal;font-family:sans-serif;font-variant-ligatures:normal;font-variant-position:normal;font-variant-caps:normal;font-variant-numeric:normal;font-variant-alternates:normal;font-feature-settings:normal;text-indent:0;text-align:start;text-decoration:none;text-decoration-line:none;text-decoration-style:solid;text-decoration-color:#000000;letter-spacing:normal;word-spacing:normal;text-transform:none;writing-mode:lr-tb;direction:ltr;text-orientation:mixed;dominant-baseline:auto;baseline-shift:baseline;text-anchor:start;white-space:normal;shape-padding:0;clip-rule:nonzero;display:inline;overflow:visible;visibility:visible;opacity:0.2;isolation:auto;mix-blend-mode:normal;color-interpolation:sRGB;color-interpolation-filters:linearRGB;solid-color:#000000;solid-opacity:1;vector-effect:none;fill:#050505;fill-opacity:1;fill-rule:nonzero;stroke:none;stroke-width:0.94124889;stroke-linecap:butt;stroke-linejoin:miter;stroke-miterlimit:4;stroke-dasharray:none;stroke-dashoffset:0;stroke-opacity:1;color-rendering:auto;image-rendering:auto;shape-rendering:auto;text-rendering:auto;enable-background:accumulate"
         d="M 12.234375 8.3828125 C 12.234375 9.0797841 12.060395 9.6572223 11.8125 10.169922 C 11.876523 10.165498 11.93758 10.158657 12.001953 10.154297 C 12.134098 9.7700603 12.234375 9.3623862 12.234375 8.8828125 L 12.234375 8.3828125 z M 16 8.3847656 C 15.999924 8.5772683 15.989759 8.7639514 15.96875 8.9433594 C 15.96875 8.9433594 15.96875 8.9453125 15.96875 8.9453125 C 15.92651 9.3046261 15.842102 9.6371324 15.724609 9.9394531 C 15.724609 9.9394531 15.724609 9.9414062 15.724609 9.9414062 C 15.66591 10.092224 15.598693 10.235578 15.523438 10.371094 C 15.482757 10.44445 15.433859 10.509378 15.388672 10.578125 C 15.350082 10.636685 15.315161 10.698804 15.273438 10.753906 C 15.272581 10.755048 15.272345 10.756671 15.271484 10.757812 C 14.998643 11.118284 14.660843 11.404195 14.277344 11.605469 C 13.285689 12.125894 12.172759 12.154297 11.175781 12.154297 L 5.7226562 12.154297 L 5.7226562 12.654297 L 11.175781 12.654297 C 12.172759 12.654297 13.285689 12.625894 14.277344 12.105469 C 14.660843 11.904195 14.998643 11.618284 15.271484 11.257812 C 15.272345 11.256671 15.272581 11.255048 15.273438 11.253906 C 15.315161 11.198804 15.350082 11.136685 15.388672 11.078125 C 15.433859 11.009378 15.482757 10.94445 15.523438 10.871094 C 15.598693 10.735578 15.66591 10.592224 15.724609 10.441406 C 15.724609 10.441406 15.724609 10.439453 15.724609 10.439453 C 15.842102 10.137132 15.92651 9.8046261 15.96875 9.4453125 C 15.96875 9.4453125 15.96875 9.4433594 15.96875 9.4433594 C 15.989759 9.2639514 15.999924 9.0772683 16 8.8847656 L 16 8.3847656 z M 0.40039062 11.435547 L 0 11.681641 L 0.67578125 12.109375 C 1.3617974 12.543005 2.074896 12.96217 2.8125 13.369141 L 2.8125 13.371094 L 2.8144531 13.371094 C 3.5602032 13.777714 4.293818 14.146562 5.015625 14.476562 L 5.7226562 14.800781 L 5.7226562 14.300781 L 5.015625 13.976562 C 4.293818 13.646562 3.5602032 13.277714 2.8144531 12.871094 L 2.8125 12.871094 L 2.8125 12.869141 C 2.074896 12.46217 1.3617974 12.043005 0.67578125 11.609375 L 0.40039062 11.435547 z "
         transform="matrix(1.0509567,0,0,1.0509567,-2.4480428,7.8163746)"
         id="path943" />
      <path
         style="color:#000000;font-style:normal;font-variant:normal;font-weight:normal;font-stretch:normal;font-size:medium;line-height:normal;font-family:sans-serif;font-variant-ligatures:normal;font-variant-position:normal;font-variant-caps:normal;font-variant-numeric:normal;font-variant-alternates:normal;font-feature-settings:normal;text-indent:0;text-align:start;text-decoration:none;text-decoration-line:none;text-decoration-style:solid;text-decoration-color:#000000;letter-spacing:normal;word-spacing:normal;text-transform:none;writing-mode:lr-tb;direction:ltr;text-orientation:mixed;dominant-baseline:auto;baseline-shift:baseline;text-anchor:start;white-space:normal;shape-padding:0;clip-rule:nonzero;display:inline;overflow:visible;visibility:visible;opacity:0.3;isolation:auto;mix-blend-mode:normal;color-interpolation:sRGB;color-interpolation-filters:linearRGB;solid-color:#000000;solid-opacity:1;vector-effect:none;fill:#fdfdfd;fill-opacity:1;fill-rule:nonzero;stroke:none;stroke-width:0.94124889;stroke-linecap:butt;stroke-linejoin:miter;stroke-miterlimit:4;stroke-dasharray:none;stroke-dashoffset:0;stroke-opacity:1;color-rendering:auto;image-rendering:auto;shape-rendering:auto;text-rendering:auto;enable-background:accumulate"
         d="M 10.351562 4.1757812 L 10.351562 4.6464844 L 10.351562 4.6757812 L 12.234375 4.6757812 L 12.234375 4.1757812 L 10.351562 4.1757812 z M 14.117188 4.1757812 L 14.117188 4.1796875 L 14.066406 4.1796875 L 14.066406 4.6796875 L 14.117188 4.6796875 L 14.117188 4.6757812 L 16 4.6757812 L 16 4.1796875 L 16 4.1757812 L 14.117188 4.1757812 z M 5.7246094 8.5644531 L 5.0117188 8.8984375 C 4.2914937 9.2363078 3.5595831 9.6073916 2.8144531 10.013672 L 2.8125 10.013672 L 2.8125 10.015625 C 2.076179 10.421875 1.3644315 10.837539 0.6796875 11.261719 L 0 11.681641 L 0.40039062 11.935547 L 0.6796875 11.761719 C 1.3644315 11.337539 2.076179 10.921875 2.8125 10.515625 L 2.8125 10.513672 L 2.8144531 10.513672 C 3.5595831 10.107392 4.2914937 9.7363078 5.0117188 9.3984375 L 5.7246094 9.0644531 L 5.7246094 8.5644531 z M 10.351562 8.8828125 C 10.351562 9.421771 10.268589 9.751482 10.152344 9.9648438 C 10.036099 10.178206 9.8868116 10.305274 9.6425781 10.433594 C 9.3292912 10.597436 8.7847402 10.675021 8.1855469 10.71875 L 5.7246094 10.71875 L 5.7246094 11.21875 L 8.1855469 11.21875 C 8.7847402 11.175021 9.3292912 11.097436 9.6425781 10.933594 C 9.8868116 10.805274 10.036099 10.678206 10.152344 10.464844 C 10.268589 10.251482 10.351562 9.921771 10.351562 9.3828125 L 10.351562 8.8828125 z M 14.066406 8.8847656 C 14.066406 9.4161957 13.980893 9.7382586 13.869141 9.9433594 C 13.757385 10.148449 13.616044 10.267118 13.376953 10.392578 C 13.201792 10.484494 12.946657 10.551636 12.658203 10.603516 C 12.450947 10.626093 12.224848 10.639201 12.001953 10.654297 C 11.94205 10.828477 11.889823 11.010002 11.8125 11.169922 C 12.098206 11.150178 12.39109 11.132613 12.658203 11.103516 C 12.946657 11.051636 13.201792 10.984494 13.376953 10.892578 C 13.616044 10.767118 13.757385 10.648449 13.869141 10.443359 C 13.980893 10.238259 14.066406 9.9161957 14.066406 9.3847656 L 14.066406 8.8847656 z "
         transform="matrix(1.0509567,0,0,1.0509567,-2.4480428,7.8163746)"
         id="path945" />
    </g>
  </g>
</svg>
